svgs/league_of_comic_geeks.svg

<svg width="192" height="192" viewBox="0 0 192 192" fill="none" xmlns="http://www.w3.org/2000/svg">
<path d="M33.1515 106.501V131.631C33.1515 134.552 34.7162 137.248 37.2504 138.695L91.9795 169.933C93.2256 170.644 94.6128 171 96 171M158.848 106.501V131.631C158.848 134.552 157.284 137.248 154.75 138.695L100.021 169.933C98.7744 170.644 97.3872 171 96 171M54.7879 121.25L74.3636 132.438M96 119.181C94.6114 119.181 93.2227 118.825 91.9757 118.112L32.0951 83.8902C29.563 82.4431 28 79.7476 28 76.8281V63.353C28 61.8899 28.3925 60.4831 29.1028 59.2614M96 119.181C97.3886 119.181 98.7773 118.825 100.024 118.112L159.905 83.8902C162.437 82.4431 164 79.7476 164 76.8281V63.353C164 61.8899 163.607 60.4831 162.897 59.2614M96 119.181V97.4932M96 171V138.308M162.897 59.2614C162.19 58.0453 161.168 57.0128 159.905 56.2909L100.024 22.069C97.5302 20.6437 94.4698 20.6437 91.9757 22.069L32.0951 56.2909C30.8319 57.0128 29.8099 58.0453 29.1028 59.2614M162.897 59.2614L96 97.4932M29.1028 59.2614L96 97.4932" stroke="black" stroke-width="10" stroke-linecap="round" stroke-linejoin="round"/>
</svg>

<svg xmlns="http://www.w3.org/2000/svg" width="192" height="192" fill="none"><path stroke="#000" stroke-linecap="round" stroke-linejoin="round" stroke-width="10" d="M33.152 106.501v25.13a8.13 8.13 0 0 0 4.098 7.064l54.73 31.238A8.1 8.1 0 0 0 96 171m62.848-64.499v25.13a8.13 8.13 0 0 1-4.098 7.064l-54.729 31.238A8.1 8.1 0 0 1 96 171m-41.212-49.75 19.576 11.188M96 119.181a8.1 8.1 0 0 1-4.024-1.069L32.096 83.89A8.13 8.13 0 0 1 28 76.828V63.353c0-1.463.392-2.87 1.103-4.092M96 119.181a8.1 8.1 0 0 0 4.024-1.069l59.881-34.222A8.13 8.13 0 0 0 164 76.828V63.353c0-1.463-.393-2.87-1.103-4.092M96 119.181V97.493M96 171v-32.692m66.897-79.047a8.1 8.1 0 0 0-2.992-2.97l-59.881-34.222a8.11 8.11 0 0 0-8.048 0l-59.88 34.222a8.1 8.1 0 0 0-2.993 2.97m133.794 0L96 97.493M29.103 59.261 96 97.493"/></svg>
